X:179
T:Mother quoth Hodge (the new way)
M:6/8
L:1/8
B:Thompson's Compleat Collection of 200 Favourite Country Dances, vol. 1 (London, 1757)
Z:Transcribed and edited by Flynn Titford-Mock, 2007
Z:abc's:AK/Fiddler's Companion
K:D
A>BA d2d|efg f3|gBB c2d|edc d2:|
M:3/8
L:1/8
"Largo"
d/e/|f2d|B2 c/d/|e2c|A2 A|
M:6/8
L:1/8
"Allegreto"
dcd BcA|BA^G A2A|dcd Bcd|ece cde|fgf efd|edc d3:|

